X:1
T:James Gibb editions
T:Psalm 38 (Becker) - Schütz
%%score [ ( 1 2 ) ( 3 4 ) ]
L:1/8
Q:1/4=100
M:2/2
K:G
V:1 treble nm="Soprano Alto"
V:2 treble 
V:3 bass nm="Tenor Bass"
V:4 bass 
V:1
"^Cornelius Becker\n(1561-1604)""^Psalm 38, SWV 135""^Heinrich Schütz\n(1585-1672)" E4 | %1
w: ~Herr,|
w: |
w: wie|
 B2 c2 (d3/2c/4B/4A)d | c2 c2 B3 d | B2 d2 e3 d |[M:2/2] (cd) B2 A4 :| c4 | B2 A2 G3 =F | %7
w: straf mich nicht * * * in|dei- nem Zorn, laß|mich dein Grimm ver-|zeh\- * ren nicht,|||
w: ||||an|mein'm Leib ist Ge-|
w: schar- fe Pfeil * * * und|ste- chend Dorn dein|Rach ver- wundt, dein|Hand * drückt mich,|||
 E2 D2 C3 G | A2 B2 c3 B | (cd) B2 A4 | D4 F2 A2 | B3 A G2 A2 | F3 G A2 d2 | c3 B (A^G) F2 | E8 |] %15
w: ||Leid * und Schmerz,|in Mark und|Bein hab ich kein|Fried, der na- gend|Wurm frißt mir * das|Herz.|
w: sun- des nicht, all|Glied emp- fin- den|||||||
w: ||||||||
V:2
 B,4 | E2 E2 D3 D | E2 A,2 D3 G | G2 G2 G3 =F |[M:2/2] =F2 E2 E4 :| E4 | E2 C2 C3 A, | %7
 C2 B,2 C3 C | C2 D2 E3 D | (ED) D2 D4 | A,4 D2 D2 | D3 D B,2 E2 | ^D3 E F2 ^G2 | A3 E E2 ^D2 | %14
 E8 |] %15
V:3
 G,4 | G,2 E,2 F,3 G, | G,2 F,2 G,3 B, | D2 B,2 C3 A, |[M:2/2] A,2 ^G,2 A,4 :| A,4 | %6
 G,2 =F,2 E,3 D, | G,2 G,2 G,3 E, | E,2 G,2 G,3 G, | %9
"^6. Herr Gott, dir sei mein Leid geklagt, 1l mein Vertrauen steht zu dir,\ndu siehst, wie sehr ich werd geplagt, wenn du dein Hilf versagest mir,\nmein Feinden brächt dies große Freud, wenn mein Fuß glitt und ich hinfiel,\nund du hilfst nicht zu rechter Zeit, das wär ihr Ruhm und g'wünschtes Spiel.\n \n7. Zu leiden, halt bin ich gemacht, sind doch mein Schmerzen stets vor mir,\ndarein die Sünd hat mich gebracht, ach Herr, mein Gott, das klag ich dir\nund sorg für mein Sünd spat bis früh, trag kein Hehl meiner Missetat,\ndie mir macht groß und schwer Unruh, Herr Gott, erzeig mir deine Gnad." (E, G,2) G, F,4 | %10
 F,4 A,2 F,2 | G,3 F, E,2 E,2 | B,3 B, D2 D,2 | E,3 B, (CB,) B,2 | B,8 |] %15
V:4
 E,4 | E,2 C,2 (B,,>C,D,)B,, | A,,2 A,,2 G,,3 G, | G,2 G,2 C,3 D, |[M:2/2] (=F,D,) E,2 A,,4 :| %5
 A,,4 | E,2 =F,2 C,3 D, | C,2 G,,2 C,3 C, | A,,2 G,,2 C,3 G,, | (C,B,,) G,,2 D,4 | D,4 D,2 D,2 | %11
 G,3 D, E,2 C,2 | B,,3 E, D,2 B,,2 | A,,3 ^G,, (A,,E,) B,,2 | E,8 |] %15

